web/themes/quartiers_solidaires/assets/icons/comment.svg

<?xml version="1.0" encoding="UTF-8"?>
<svg width="50px" height="50px" viewBox="0 0 50 50" version="1.1" xmlns="http://www.w3.org/2000/svg" xmlns:xlink="http://www.w3.org/1999/xlink">
    <g id="Page-1" stroke="none" stroke-width="1" fill="currentColor" fill-rule="evenodd">
        <path d="M6.56008062,45.5605397 C5.61510081,46.5053778 3.9995,45.836103 3.9995,44.4998 L3.9995,7.8338 C3.9995,5.16364864 6.16379702,2.9998 8.8335,2.9998 L42.1665,2.9998 C44.8361513,2.9998 46.9995,5.16359706 46.9995,7.8338 L46.9995,34.4998 C46.9995,37.1692788 44.8358756,39.3338 42.1665,39.3338 L12.7877544,39.3338 L6.56008062,45.5605397 Z M11.1059194,36.7730603 C11.3872175,36.4918044 11.7687142,36.3338 12.1665,36.3338 L42.1665,36.3338 C43.178743,36.3338 43.9995,35.5127028 43.9995,34.4998 L43.9995,7.8338 C43.9995,6.82031216 43.1791579,5.9998 42.1665,5.9998 L8.8335,5.9998 C7.82051214,5.9998 6.9995,6.82064205 6.9995,7.8338 L6.9995,40.8788637 L11.1059194,36.7730603 Z" id="Stroke-1" fill-rule="nonzero"></path>
        <path d="M27,21.1668 C27,20.3382271 26.3285729,19.6668 25.5,19.6668 C24.6714271,19.6668 24,20.3382271 24,21.1668 C24,21.9947956 24.6718497,22.6668 25.5,22.6668 C26.3281503,22.6668 27,21.9947956 27,21.1668 Z M30,21.1668 C30,23.6514952 27.9851591,25.6668 25.5,25.6668 C23.0148409,25.6668 21,23.6514952 21,21.1668 C21,18.6813729 23.0145729,16.6668 25.5,16.6668 C27.9854271,16.6668 30,18.6813729 30,21.1668 Z" id="Stroke-3" fill-rule="nonzero"></path>
        <path d="M16,21.1668 C16,20.3382271 15.3285729,19.6668 14.5,19.6668 C13.6714271,19.6668 13,20.3382271 13,21.1668 C13,21.9947956 13.6718497,22.6668 14.5,22.6668 C15.3281503,22.6668 16,21.9947956 16,21.1668 Z M19,21.1668 C19,23.6514952 16.9851591,25.6668 14.5,25.6668 C12.0148409,25.6668 10,23.6514952 10,21.1668 C10,18.6813729 12.0145729,16.6668 14.5,16.6668 C16.9854271,16.6668 19,18.6813729 19,21.1668 Z" id="Stroke-5" fill-rule="nonzero"></path>
        <path d="M38,21.1668 C38,20.3382271 37.3285729,19.6668 36.5,19.6668 C35.6714271,19.6668 35,20.3382271 35,21.1668 C35,21.9947956 35.6718497,22.6668 36.5,22.6668 C37.3281503,22.6668 38,21.9947956 38,21.1668 Z M41,21.1668 C41,23.6514952 38.9851591,25.6668 36.5,25.6668 C34.0148409,25.6668 32,23.6514952 32,21.1668 C32,18.6813729 34.0145729,16.6668 36.5,16.6668 C38.9854271,16.6668 41,18.6813729 41,21.1668 Z" id="Stroke-7" fill-rule="nonzero"></path>
    </g>
</svg>

<svg viewBox="0 0 50 50" xmlns="http://www.w3.org/2000/svg">
  <g fill="currentColor" fill-rule="nonzero">
    <path d="M6.56 45.56c-.945.945-2.56.276-2.56-1.06V7.834A4.834 4.834 0 0 1 8.833 3h33.332A4.833 4.833 0 0 1 47 7.834V34.5a4.834 4.834 0 0 1-4.834 4.834H12.788L6.56 45.56zm4.546-8.787a1.5 1.5 0 0 1 1.06-.44h30A1.834 1.834 0 0 0 44 34.5V7.834C44 6.82 43.18 6 42.165 6H8.834C7.82 6 7 6.82 7 7.834v33.045l4.106-4.106z"/>
    <path d="M27 21.167a1.5 1.5 0 1 0-3 0 1.5 1.5 0 0 0 3 0zm3 0a4.5 4.5 0 1 1-9-.001 4.5 4.5 0 0 1 9 0zM16 21.167a1.5 1.5 0 1 0-3 0 1.5 1.5 0 0 0 3 0zm3 0a4.5 4.5 0 1 1-9-.001 4.5 4.5 0 0 1 9 0zM38 21.167a1.5 1.5 0 1 0-3 0 1.5 1.5 0 0 0 3 0zm3 0a4.5 4.5 0 1 1-9-.001 4.5 4.5 0 0 1 9 0z"/>
  </g>
</svg>
